images/icons/handshake.svg

<?xml version="1.0" encoding="UTF-8"?>
<svg width="48px" height="49px" viewBox="0 0 48 49" version="1.1" xmlns="http://www.w3.org/2000/svg" xmlns:xlink="http://www.w3.org/1999/xlink">
    <title>Group 17</title>
    <g id="Design" stroke="none" stroke-width="1" fill="none" fill-rule="evenodd">
        <g id="XL" transform="translate(-885.000000, -2494.000000)" fill="#2FBEFF" fill-rule="nonzero">
            <g id="Group-14" transform="translate(285.000000, 1864.000000)">
                <g id="Group-13-Copy-3" transform="translate(570.000000, 590.000000)">
                    <g id="Group-17" transform="translate(30.000000, 40.000000)">
                        <path d="M23.8324688,6.099375 C24.3539063,6.099375 24.776625,5.67665625 24.776625,5.15521875 L24.776625,0.94415625 C24.776625,0.42271875 24.3539063,1.86517468e-14 23.8324688,1.86517468e-14 C23.3110313,1.86517468e-14 22.8883125,0.42271875 22.8883125,0.94415625 L22.8883125,5.15521875 C22.8884063,5.67665625 23.311125,6.099375 23.8324688,6.099375 Z" id="Path"></path>
                        <path d="M46.9111875,32.4360937 L45.2432813,30.772875 C44.6499375,30.1802812 43.8591563,29.8538437 43.0165312,29.8538437 C42.47775,29.8538437 41.9605312,29.9879062 41.5021875,30.2390625 L38.359125,27.09975 L38.5122187,26.9468437 C39.7873125,25.6692187 39.7868437,23.593125 38.512125,22.3198125 C38.0565937,21.8634375 37.4881875,21.559125 36.8685938,21.4310625 C36.9539063,21.1365937 36.9988125,20.8281562 36.9988125,20.5125 C36.9988125,19.6354687 36.658125,18.8130937 36.0414375,18.1989375 C35.5858125,17.7425625 35.0175,17.43825 34.3979062,17.3101875 C34.4832187,17.0157187 34.528125,16.707375 34.528125,16.391625 C34.528125,15.5145 34.1874375,14.6922187 33.5697187,14.077125 C33.1032188,13.6111875 32.52975,13.31625 31.9275937,13.1907187 C32.2497187,12.0800625 31.9744688,10.8304687 31.1007188,9.95521875 C30.3734063,9.231 29.3865,8.91975 28.4354063,9.020625 L22.207125,7.84171875 C21.25725,7.66153125 20.0710312,7.542375 19.32225,8.22534375 C19.275,8.26846875 19.2268125,8.3180625 19.179375,8.37328125 C18.018375,7.95009375 16.66425,8.20209375 15.7345312,9.13078125 C15.11775,9.7468125 14.778,10.5688125 14.778,11.445375 C14.778,11.761125 14.8227187,12.0694687 14.9079375,12.3640312 C14.289,12.492 13.7213437,12.7959375 13.2673125,13.2508125 C12.6493125,13.8662812 12.3085312,14.6873437 12.307875,15.562875 C12.3075938,15.879375 12.3525,16.18875 12.4381875,16.4840625 C11.8189687,16.61175 11.2509375,16.915125 10.7955,17.37 C10.1775,17.9873437 9.8371875,18.8098125 9.8371875,19.6859062 C9.8371875,20.3569687 10.0375313,20.99625 10.4087812,21.53625 C9.94003125,21.6951562 9.51065625,21.959625 9.151125,22.3187812 C7.8751875,23.593125 7.87471875,25.6693125 9.15196875,26.9488125 L9.3045,27.1006875 L6.1610625,30.2384062 C4.99284375,29.688375 3.5535,29.8944375 2.58946875,30.85725 L0.92053125,32.5215 C0.32690625,33.114375 0,33.90525 0,34.7483437 C0,35.5915312 0.32690625,36.3825 0.92053125,36.9754687 L3.003375,39.0557812 C3.37228125,39.4243125 3.970125,39.4239375 4.3385625,39.0550312 C4.70709375,38.686125 4.70671875,38.0882812 4.3378125,37.7198437 L2.25496875,35.6395312 C2.01853125,35.403375 1.8883125,35.086875 1.8883125,34.7484375 C1.8883125,34.4100937 2.01853125,34.0936875 2.25440625,33.8580937 L3.9234375,32.19375 C4.3404375,31.7772187 4.9786875,31.7151562 5.463375,32.0049375 C5.4975,32.0562187 5.53696875,32.1049687 5.58215625,32.15025 C5.6630625,32.2313437 5.75540625,32.2935 5.85346875,32.3389687 L15.4246875,41.896125 C15.4701563,41.9952187 15.5325937,42.0885 15.6140625,42.1700625 C15.693375,42.2494687 15.7838437,42.310875 15.8798438,42.3560625 C16.08225,42.5849062 16.1940938,42.8772187 16.1940938,43.1890312 C16.1940938,43.5274687 16.063875,43.843875 15.8274375,44.0800312 L14.1600937,45.7454062 C13.6674375,46.2359062 12.8660625,46.2358125 12.3749063,45.7469062 L10.2920625,43.663875 C9.92334375,43.2951562 9.32559375,43.2951562 8.956875,43.663875 C8.58815625,44.0325937 8.58815625,44.6303437 8.956875,44.9990625 L11.0412188,47.0835937 C11.6547188,47.6945625 12.4604063,47.9999062 13.2664687,47.9999062 C14.0727187,47.9999062 14.8793438,47.6940937 15.4935937,47.0825625 L17.1619687,45.4161562 C17.7555937,44.8231875 18.0825,44.0323125 18.0825,43.1890312 C18.0825,42.58725 17.9151562,42.0125625 17.604,41.517 L21.14175,37.9835625 C21.1455,37.9797187 21.14925,37.975875 21.1530937,37.9720312 C21.5581875,37.55325 22.6862812,37.631625 23.77725,37.707375 C24.552375,37.7612812 25.4165625,37.8211875 26.260875,37.723875 L30.135,41.5934062 C29.8840312,42.051 29.7500625,42.5675625 29.7500625,43.1055 C29.7500625,43.9478437 30.0769688,44.73825 30.6705938,45.3312187 L32.3390625,46.997625 C32.9323125,47.5902187 33.7230938,47.9166562 34.5657188,47.9166562 C35.40825,47.9166562 36.1990313,47.5903125 36.792375,46.997625 L46.9118437,36.8904375 C47.5054687,36.2975625 47.832375,35.5066875 47.832375,34.6635 C47.832375,33.8204062 47.505375,33.0295312 46.9111875,32.4360937 L46.9111875,32.4360937 Z M21.8555625,9.69703125 L25.9512188,10.47225 L23.49975,12.9227812 C23.1205313,12.7405312 22.6007813,12.4005937 22.0305938,11.8551562 C21.250125,11.1085312 20.6918438,10.2465 20.6410313,9.70884375 C20.6409375,9.7085625 20.6409375,9.70828125 20.6409375,9.708 C20.6409375,9.70790625 20.6408438,9.7078125 20.6408438,9.70771875 C20.6371875,9.66909375 20.63625,9.63825 20.6367188,9.61471875 C20.7601875,9.58471875 21.088125,9.5514375 21.8555625,9.69703125 Z M17.068875,10.4668125 C17.5471875,9.98896875 18.29025,9.93384375 18.8307188,10.2998437 C19.137,11.5840312 20.2324688,12.7479375 20.7253125,13.2195 C21.0905625,13.569 22.2625313,14.6168437 23.4454688,14.9048437 C23.6055,15.13425 23.6925938,15.4077187 23.6925938,15.6962812 C23.6925938,16.068 23.549625,16.4155312 23.2890938,16.6757812 C23.0293125,16.9360312 22.6812188,17.0792812 22.3088438,17.0792812 C21.936375,17.0792812 21.5882813,16.9360312 21.3272813,16.6745625 L21.3271875,16.6744687 L21.3267188,16.674 L17.0687813,12.42375 C16.8091875,12.1645312 16.6662188,11.817 16.6662188,11.445375 C16.6663125,11.0736562 16.8092813,10.726125 17.068875,10.4668125 L17.068875,10.4668125 Z M14.60175,14.5868437 C14.8615313,14.3266875 15.20925,14.1833437 15.5810625,14.1833437 C15.9533438,14.1833437 16.3021875,14.3269687 16.5636563,14.5881562 L19.9922813,18.0099375 C20.5321875,18.5506875 20.5321875,19.430625 19.9941563,19.9695 C19.7329688,20.2296562 19.3836563,20.3729062 19.010625,20.3729062 C18.6375938,20.3729062 18.2882813,20.2296562 18.0282188,19.970625 L18.028125,19.9705312 L15.4270313,17.37 C15.423,17.3659687 15.4185938,17.3622187 15.4144688,17.3580937 L14.6007188,16.5447187 C14.339625,16.2839062 14.1959063,15.9357187 14.1961871,15.5642812 C14.1965625,15.1940625 14.3398125,14.8476562 14.60175,14.5868437 L14.60175,14.5868437 Z M12.1299375,18.7060312 C12.3899063,18.4464375 12.738375,18.3034687 13.1113125,18.3034687 C13.4811563,18.3034687 13.826625,18.444375 14.0854688,18.6994687 L16.6945313,21.3073125 C16.9546875,21.5664375 17.0980313,21.9135937 17.0980313,22.2848437 C17.0980313,22.656 16.9546875,23.0031562 16.6935,23.2633125 C16.433625,23.5228125 16.0855313,23.6657812 15.71325,23.6657812 C15.3404063,23.6657812 14.9911875,23.5224375 14.7309375,23.2633125 L13.7850938,22.3185937 C13.7849063,22.3183125 13.784625,22.318125 13.7844375,22.3179375 L12.1300313,20.6655 C11.8692188,20.4049687 11.7255938,20.0569687 11.7255938,19.6857187 C11.7255938,19.3145625 11.8692188,18.9664687 12.1299375,18.7060312 L12.1299375,18.7060312 Z M10.4855625,23.6547187 C10.7466563,23.3939062 11.0955938,23.2502812 11.4680625,23.2502812 C11.8404375,23.2502812 12.1892813,23.3938125 12.4502813,23.6544375 L13.3974375,24.6004687 C13.6576875,24.8595937 13.8009375,25.20675 13.8009375,25.578 C13.8009375,25.94925 13.6575938,26.2963125 13.3954688,26.5575 C13.1356875,26.8176562 12.7875938,26.961 12.4152188,26.961 C12.04275,26.961 11.6946563,26.81775 11.433,26.555625 L11.3144063,26.4375 C11.3128125,26.4359062 11.3115938,26.4342187 11.3100938,26.4327187 C11.3083125,26.4310312 11.3064375,26.4295312 11.3046563,26.4278437 L10.4865,25.612875 C9.94659375,25.0718437 9.946125,24.1935 10.4855625,23.6547187 Z M29.72625,34.3851562 C29.3577188,34.0161562 28.759875,34.015875 28.3910625,34.3843125 L27.5510625,35.2232812 C26.752875,36.0214687 25.3065938,35.9209687 23.9079375,35.8239375 C22.3890938,35.718375 20.8185,35.6094375 19.8021563,36.652875 L16.3245,40.1263125 L7.62796875,31.4425312 L10.7055938,28.3704375 C11.2142813,28.68225 11.80125,28.8494062 12.4154063,28.8494062 C13.2928125,28.8494062 14.1155625,28.5092812 14.7300938,27.893625 C15.34875,27.2775 15.6895313,26.4552187 15.6895313,25.5780937 C15.6895313,25.5699375 15.6889688,25.561875 15.6889688,25.5537187 C15.697125,25.5538125 15.7052813,25.5542812 15.7134375,25.5542812 C16.589625,25.5542812 17.4117188,25.2151875 18.0270938,24.6005625 C18.64575,23.9844375 18.9865313,23.1620625 18.9865313,22.2850312 C18.9865313,22.276875 18.9859688,22.2688125 18.9859688,22.2606562 C18.9942188,22.2606562 19.0024688,22.2612187 19.0108125,22.2612187 C19.8867188,22.2612187 20.7092813,21.9225 21.3287813,21.3055312 C21.9719063,20.661375 22.29,19.8133125 22.2839063,18.9670312 C22.2923438,18.967125 22.3007813,18.9675937 22.3092187,18.9675937 C23.186625,18.9675 24.0092813,18.6274687 24.62475,18.010875 C25.2415313,17.3948437 25.5812812,16.5728437 25.5812812,15.6962812 C25.5812812,15.08325 25.4145937,14.4972187 25.1038125,13.9895625 L27.8012812,11.2932187 C28.0022813,11.0930625 28.2501562,10.9674375 28.5099375,10.9155937 C28.5380625,10.9125937 28.5658125,10.9080937 28.5932813,10.9026562 C29.0100938,10.8451875 29.4478125,10.9738125 29.7665625,11.29125 C30.3064688,11.8320937 30.3064688,12.7120312 29.7685313,13.2509062 L28.947,14.0690625 C28.9442813,14.0717812 28.941375,14.0742187 28.9386563,14.0769375 L27.9924375,15.0215625 C27.6234375,15.39 27.6230625,15.9878437 27.9915938,16.35675 C28.3602188,16.72575 28.9579688,16.7260312 29.3267813,16.3575937 L30.1515938,15.5339062 C30.1517813,15.5337187 30.1519688,15.5335312 30.1521563,15.5333437 L30.2768437,15.409125 C30.81825,14.8726875 31.695375,14.8738125 32.2362187,15.4139062 C32.4964687,15.6730312 32.6398125,16.0201875 32.6398125,16.3914375 C32.6398125,16.7625937 32.4964687,17.10975 32.2341562,17.3709375 L31.4079375,18.1988437 C31.4078438,18.1989375 31.40775,18.1990312 31.4076563,18.1992187 L30.4615313,19.1415 C30.0920625,19.5094687 30.0908438,20.1073125 30.4588125,20.4766875 C30.8267813,20.8461562 31.4245313,20.8472812 31.794,20.4794062 L32.7444375,19.5328125 C33.0042188,19.2725625 33.3523125,19.1293125 33.7246875,19.1293125 C34.0971563,19.1293125 34.4453438,19.2725625 34.707,19.5346875 C34.96725,19.7939062 35.1105,20.1410625 35.1105,20.5123125 C35.1105,20.8834687 34.96725,21.230625 34.7055,21.49125 L33.0583125,23.1390937 C32.6896875,23.5079062 32.6897813,24.1056562 33.0585,24.4742812 C33.2429063,24.6585937 33.4844063,24.7506562 33.726,24.7506562 C33.9676875,24.7506562 34.209375,24.6584062 34.3936875,24.474 L35.2009688,23.6664375 C35.2055625,23.6620312 35.2105313,23.6581875 35.215125,23.6535937 C35.4749063,23.3933437 35.823,23.2500937 36.195375,23.2500937 C36.5678438,23.2500937 36.9159375,23.3933437 37.1766563,23.6545312 C37.716,24.1933125 37.7155313,25.07175 37.1766563,25.6115625 L36.355875,26.4314062 C36.3555938,26.4316875 36.3552188,26.4319687 36.3549375,26.43225 C36.3546563,26.4325312 36.354375,26.4329062 36.3540938,26.4331875 L35.0513438,27.7343437 C34.6824375,28.102875 34.6820625,28.7007187 35.0505,29.069625 C35.2349063,29.2542187 35.4767813,29.3465625 35.7185625,29.3465625 C35.9599688,29.3465625 36.2014688,29.2545 36.3857813,29.0704687 L37.023,28.434 L40.0770938,31.4845312 L31.3813125,40.1697187 L28.265625,37.0577812 C28.4828438,36.9180937 28.6906875,36.7538437 28.8857813,36.55875 L29.7253125,35.72025 C30.0944063,35.3519062 30.0947813,34.7540625 29.72625,34.3851562 L29.72625,34.3851562 Z M45.5773125,35.5544062 L35.4578438,45.6615937 C35.221125,45.8980312 34.90425,46.02825 34.565625,46.02825 C34.227,46.02825 33.910125,45.8980312 33.6733125,45.6615 L32.0048438,43.9950937 C31.7684063,43.7590312 31.6381875,43.4430937 31.6381875,43.1055 C31.6381875,42.768 31.7684063,42.4520625 32.0048438,42.2159062 L42.1243125,32.1087187 C42.361125,31.8721875 42.6779063,31.7419687 43.016625,31.7419687 C43.35525,31.7419687 43.672125,31.8721875 43.9095,32.1092812 L45.5774063,33.7725 C45.8138438,34.0086562 45.9440625,34.3249687 45.9440625,34.6634062 C45.9440625,35.0019375 45.81375,35.3183437 45.5773125,35.5544062 L45.5773125,35.5544062 Z" id="Shape"></path>
                        <path d="M11.295375,5.3034375 C11.4796875,5.487375 11.721,5.57925 11.9623125,5.57925 C12.2041875,5.57925 12.4461563,5.4868125 12.6305625,5.30203125 C12.9989063,4.9329375 12.9983438,4.3351875 12.62925,3.96684375 L9.1888125,0.53325 C8.8198125,0.16490625 8.22196875,0.165375 7.853625,0.5345625 C7.48528125,0.90365625 7.48584375,1.50140625 7.8549375,1.86975 L11.295375,5.3034375 Z" id="Path"></path>
                        <path d="M35.702625,5.57925 C35.9440312,5.57925 36.1855312,5.4871875 36.3698437,5.30315625 L39.8076562,1.86946875 C40.1765625,1.50103125 40.1769375,0.9031875 39.8084062,0.53428125 C39.4399687,0.165375 38.8422188,0.165 38.4732187,0.53353125 L35.0354062,3.96721875 C34.6665,4.33565625 34.666125,4.9335 35.0346562,5.30240625 C35.2190625,5.487 35.4608437,5.57925 35.702625,5.57925 Z" id="Path"></path>
                        <path d="M5.80546875,40.612875 C5.4399375,40.9846875 5.445,41.5825312 5.81690625,41.9480625 L5.819625,41.9506875 C6.00309375,42.1310625 6.2413125,42.220875 6.4794375,42.220875 C6.72384375,42.220875 6.96825,42.1262812 7.15340625,41.9379375 C7.5189375,41.566125 7.51246875,40.9669687 7.14065625,40.6014375 C6.7689375,40.2359062 6.1711875,40.2410625 5.80546875,40.612875 L5.80546875,40.612875 Z" id="Path"></path>
                        <path d="M32.0355,33.0250312 C32.179125,33.0250312 32.3248125,32.9923125 32.4615937,32.9234062 C32.9271562,32.6885625 33.1141875,32.1208125 32.8794375,31.65525 C32.6445937,31.1896875 32.07675,31.0025625 31.6112812,31.2374062 L31.6060312,31.2400312 C31.1404687,31.474875 30.9560625,32.0413125 31.1908125,32.506875 C31.3565625,32.83575 31.6899375,33.0250312 32.0355,33.0250312 L32.0355,33.0250312 Z" id="Path"></path>
                    </g>
                </g>
            </g>
        </g>
    </g>
</svg>

<svg width="48" height="49" xmlns="http://www.w3.org/2000/svg"><g id="Design" stroke="none" stroke-width="1" fill="none" fill-rule="evenodd"><g id="XL" transform="translate(-885 -2494)" fill="#2FBEFF" fill-rule="nonzero"><g id="Group-14" transform="translate(285 1864)"><g id="Group-13-Copy-3" transform="translate(570 590)"><g id="Group-17" transform="translate(30 40)"><path d="M23.832 6.1a.944.944 0 00.945-.945V.945a.944.944 0 00-1.889 0v4.21c0 .522.423.944.944.944z" id="Path"/><path d="M46.911 32.436l-1.668-1.663a3.13 3.13 0 00-2.226-.92c-.54 0-1.056.135-1.515.386L38.36 27.1l.153-.152a3.277 3.277 0 000-4.627 3.241 3.241 0 00-1.643-.889c.085-.294.13-.603.13-.919 0-.877-.34-1.699-.958-2.313a3.241 3.241 0 00-1.643-.889c.085-.294.13-.603.13-.918 0-.877-.34-1.7-.958-2.315a3.256 3.256 0 00-1.642-.886 3.282 3.282 0 00-.827-3.236 3.278 3.278 0 00-2.666-.934l-6.228-1.18c-.95-.18-2.136-.299-2.885.384a1.705 1.705 0 00-.143.148 3.283 3.283 0 00-3.444.758 3.248 3.248 0 00-.957 2.314c0 .316.045.624.13.919a3.236 3.236 0 00-1.64.887 3.244 3.244 0 00-.96 2.312c0 .316.044.626.13.921a3.243 3.243 0 00-1.643.886 3.251 3.251 0 00-.958 2.316c0 .671.2 1.31.572 1.85a3.254 3.254 0 00-1.258.783 3.277 3.277 0 00.001 4.63l.153.152-3.144 3.137a3.157 3.157 0 00-3.572.62L.921 32.521A3.125 3.125 0 000 34.748c0 .844.327 1.635.92 2.227l2.083 2.08a.944.944 0 101.335-1.335l-2.083-2.08a1.25 1.25 0 01-.367-.892c0-.338.13-.654.366-.89l1.67-1.664a1.264 1.264 0 011.54-.19.952.952 0 00.39.335l9.57 9.557a.941.941 0 00.456.46c.202.229.314.521.314.833 0 .338-.13.655-.367.891l-1.667 1.665a1.27 1.27 0 01-1.785.002l-2.083-2.083a.944.944 0 10-1.335 1.335l2.084 2.085a3.15 3.15 0 002.225.916c.807 0 1.613-.306 2.228-.917l1.668-1.667c.594-.593.92-1.384.92-2.227 0-.602-.167-1.176-.478-1.672l3.538-3.533.011-.012c.405-.419 1.533-.34 2.624-.265.775.054 1.64.114 2.484.017l3.874 3.87a3.134 3.134 0 00-.385 1.511c0 .843.327 1.633.92 2.226l1.67 1.667a3.129 3.129 0 002.226.919c.842 0 1.633-.327 2.226-.92l10.12-10.107c.593-.592.92-1.383.92-2.227a3.13 3.13 0 00-.92-2.227zM21.856 9.697l4.095.775-2.451 2.45c-.38-.181-.9-.521-1.47-1.067-.78-.746-1.338-1.609-1.389-2.146v-.001a.825.825 0 01-.004-.093c.123-.03.451-.064 1.219.082zm-4.787.77a1.393 1.393 0 011.762-.167c.306 1.284 1.401 2.448 1.894 2.92.366.349 1.538 1.397 2.72 1.685.16.23.248.503.248.791a1.375 1.375 0 01-1.384 1.383c-.373 0-.72-.143-.982-.404v-.001l-4.258-4.25a1.372 1.372 0 01-.403-.979c0-.371.143-.719.403-.978zm-2.467 4.12c.26-.26.607-.404.98-.404.371 0 .72.144.982.405l3.428 3.422c.54.54.54 1.42.002 1.96-.261.26-.61.403-.983.403s-.723-.143-.983-.402l-2.601-2.601-.013-.012-.813-.813a1.374 1.374 0 01-.405-.98c0-.37.144-.717.406-.978zm-2.472 4.119c.26-.26.608-.403.981-.403.37 0 .716.141.974.396l2.61 2.608c.26.26.403.607.403.978s-.143.718-.404.978c-.26.26-.608.403-.98.403-.374 0-.723-.144-.983-.403l-.946-.944v-.001l-1.655-1.652a1.375 1.375 0 01-.404-.98c0-.371.143-.72.404-.98zm-1.644 4.949c.26-.261.61-.405.982-.405s.721.144.982.404l.947.946c.26.26.404.607.404.978s-.143.718-.406.98c-.26.26-.607.403-.98.403-.372 0-.72-.143-.982-.405l-.119-.119-.004-.004-.005-.005-.819-.815a1.387 1.387 0 010-1.958zm19.24 10.73a.944.944 0 00-1.335 0l-.84.838c-.798.798-2.244.698-3.643.6-1.519-.105-3.09-.214-4.106.83l-3.477 3.473-8.697-8.683 3.078-3.073a3.259 3.259 0 001.71.48c.877 0 1.7-.34 2.314-.956.619-.616.96-1.439.96-2.316l-.001-.024h.024c.877 0 1.699-.339 2.314-.953.619-.617.96-1.439.96-2.316l-.001-.024h.025a3.262 3.262 0 003.273-3.294h.025c.878 0 1.7-.34 2.316-.956a3.248 3.248 0 00.956-2.315 3.25 3.25 0 00-.477-1.706l2.697-2.697a1.385 1.385 0 01.792-.39c.417-.058.855.07 1.174.388.54.541.54 1.421.002 1.96l-.822.818-.008.008-.947.945a.944.944 0 101.335 1.336l.825-.824.125-.125a1.39 1.39 0 011.96.005c.26.259.403.606.403.977 0 .372-.144.719-.406.98l-.826.828-.946.942a.944.944 0 101.332 1.338l.95-.946c.26-.26.608-.404.98-.404.373 0 .721.144.983.406.26.259.404.606.404.977s-.144.719-.405.98l-1.648 1.647a.944.944 0 001.336 1.335l.807-.808.014-.012c.26-.26.608-.404.98-.404.373 0 .72.143.982.405a1.386 1.386 0 010 1.957l-.821.82h-.001v.001l-1.304 1.301a.944.944 0 001.335 1.336l.637-.636 3.054 3.05-8.696 8.686-3.115-3.112c.217-.14.425-.304.62-.5l.84-.838a.944.944 0 000-1.335zm15.851 1.17l-10.12 10.107a1.253 1.253 0 01-.891.366c-.339 0-.656-.13-.893-.367l-1.668-1.666a1.248 1.248 0 01-.367-.89c0-.337.13-.653.367-.89l10.12-10.106c.236-.237.553-.367.892-.367.338 0 .655.13.892.367l1.668 1.663c.237.237.367.553.367.891 0 .339-.13.655-.367.891z" id="Shape"/><path d="M11.295 5.303a.941.941 0 001.336-.001.944.944 0 00-.002-1.335L9.19.533A.944.944 0 107.855 1.87l3.44 3.433zm24.408.277a.941.941 0 00.667-.277l3.438-3.434A.944.944 0 1038.473.534l-3.438 3.433a.944.944 0 00.668 1.612zM5.805 40.613a.944.944 0 00.012 1.335l.003.003a.942.942 0 001.334-.013.946.946 0 00-1.349-1.325zm26.23-7.588a.945.945 0 10-.424-1.788l-.005.003a.944.944 0 00.43 1.785z" id="Path"/></g></g></g></g></g></svg>
